!!!OTL: Es reiten zwei Herzliebchen (2-24), S. 60
!!!id: K1112
**kern
*clefG2
*k[b-]
*F:
{4c
=1
4.f
8e
8f
8a
=2
4.g
8f
4g
=3
4.a
8a
8b-
8a
=4
4.g}
8r
=5
{8f
8a
=6
4cc
4cc
8cc
8b-
=7
4.a
8g
8f
8f
=8
4g
4f
4c
=9
4f
4a}
=10
{4cc
=11
4.dd
8cc
8b-
8dd
=12
4.cc
8b-
8a
8a
=13
4b-
4a
4g
=14
2f}
==
*-
!!!minrhy: 8
!!!meters: 3/4 ]  ZZ[3
!!!cut: Es reiten zwei Herzliebchen (2-24), S. 60
!!!reg: Luxemburg
!!!trd: KINTZELE, Guillaume: An der Ucht, Bd. 2, Luxemburg 1927
!!!rhy1: X_  X_.XXX  X_.XX_  X_.XXX  X_.0
!!!rhy2: XX  X_X_XX  X_.XXX  X_X_X_  X_X_
!!!key: K1112  08  F 3/4 ]  ZZ[3
!!!mod: HEPTATONIK IONISCH]  AMBITUS[9
!!!kad: 231
!!!akz: 1232_5321_6541_
!!!fot: 'a__b__c__
!!!for: 'a__b__c__
!!!fok: 'Ma_~a_\__
!! PHRAS[AUFTAKTIG]
!!!fkt: Liebe, Tod
!!!bem: in der Quelle mit einer 2. Stimme versehen
!! KINTZELE
!! PR[33] 2K[0] 2G[6] 3K[0] 3G[0] 4A[8] 4Ü[0] 5A[0] 6K[3] 6G[6]
!! 7K[0] 7G[0] 8A[0] MEHR[0] SI[22] ABS[36] SR[6] SP[17]
!! ST[8] 2k[8] 2g[31] 3k[0] 3g[0] 4d[0] 4ü[0] 5d[3] 6k[3] 6g[0]
!! 7k[0] 7g[0] 8d[0] mehr[0] si[44] dm[-22] sr[39] sp[6]
!! 1F[15] 2F[45] 3F[20] 4F[8] LF[0] 2P[0] 3P[13] 4P[0] TRI[0] DF[5] AB[40]
!! TF[0] U3K[0] U3[3] U4[3] U4Ü[0] U5[32] U6K[0] U6[11] U7K[0] U7[5]
!! N1[16] N2K[0] N2[19] N3K[0] N3[8] N4[3] N4Ü[0] N5[0] N6K[0] N6[0]
!!!n7k: 0] N7[0] O1[0] O2K[0] O2[0] O3K[0] O3[0] HÖ[0
